X: 17
T: Humours Of Ennistymon, The
Z: NfldWhistler
S: https://thesession.org/tunes/228#setting46999
R: jig
M: 6/8
L: 1/8
K: Dmaj
A|:~c2c cBA|GED CDE|Add dcd|eAA A2B|
cec cBA|GED CDE|FEF GEC|1 EDC D2A:|2 EDC D2E||
|:FAF DEF|GFG EFG|FAF DEF|GED CB,A,|
FAF DEF|GFG E2A|AcB c2A|1 GEC D2E:|2 GEC D2A||

